X:1118
T:An Irish Dump.
M:C
L:1/8
Q:1/4=50 "Very Slow"
I: :: ::
N:maybe the first F in bar 3 ought to be an E?
Z:Jack Campin * www.campin.me.uk * 2009
K:E Minor
G/>A/|B>cBA {GA}BE`E>F|G>A`GE     A3 G/>A/|B>cBA {GA}BF`EE/F/|G>B B/A/F/>G/ E3:|
E/>F/|G>AB>c    d>edB |e>^def {ef}g2f>e   |dG G>A    BE E>F  |G>B B/A/F/>G/ E3:|
<end>
<start>
